X: 5
T:Madame Bonaparte
R:Hornpipe
C:Alistair Anderson
S:Nottingham Music Database
M:4/4
L:1/8
K:A 
ed|c2cB cecA|d2dc dfdB|Aceg agaf|e3f edcB|
c2cB cecA|dcde fgaf|ecAc dBGB|A2AG A2:|
cB|Aceg agaf|e3f edcB|Aceg agaf|e3f edcB|
ceae ceae|dfaf dfae|ceae ceae|Begf gfed|
ceae ceae|dcde fgaf|ecAc dBGB|A2AG A2:|
